Simply-Cyan-Circles/scalable/apps/winecfg.svg

<svg xmlns="http://www.w3.org/2000/svg" width="48" height="48" viewBox="0 0 12.7 12.7"><path d="M6.34.07a6.29 6.29 0 0 0-6.29 6.3 6.29 6.29 0 0 0 6.3 6.28 6.29 6.29 0 0 0 6.28-6.29A6.29 6.29 0 0 0 6.34.07zm-.01.94a5.4 5.4 0 0 1 5.4 5.4 5.4 5.4 0 0 1-5.4 5.41 5.4 5.4 0 0 1-5.41-5.4A5.4 5.4 0 0 1 6.32 1zm3.4 1.42l-4.24.62V6.2l4.23-.04V2.43zm-4.62.68l-3.2.43.01 2.66 3.19-.01V3.1zM1.92 6.52v2.66l3.19.44V6.54l-3.19-.02zm3.57.04v3.1l1.17.17a2.12 2.12 0 0 1-.04-.16 2.12 2.12 0 0 1-.04-.2 2.12 2.12 0 0 1 0-.22 2.12 2.12 0 0 1 0-.15 2.12 2.12 0 0 1 .02-.2 2.12 2.12 0 0 1 .05-.22 2.12 2.12 0 0 1 .07-.2 2.12 2.12 0 0 1 .08-.19 2.12 2.12 0 0 1 .1-.18 2.12 2.12 0 0 1 .13-.18 2.12 2.12 0 0 1 .14-.15 2.12 2.12 0 0 1 .16-.15 2.12 2.12 0 0 1 .17-.13 2.12 2.12 0 0 1 .18-.1 2.12 2.12 0 0 1 .19-.1 2.12 2.12 0 0 1 .2-.07 2.12 2.12 0 0 1 .2-.05 2.12 2.12 0 0 1 .2-.04 2.12 2.12 0 0 1 .22 0 2.12 2.12 0 0 1 .15 0 2.12 2.12 0 0 1 .21.02 2.12 2.12 0 0 1 .2.05 2.12 2.12 0 0 1 .2.07 2.12 2.12 0 0 1 .2.08 2.12 2.12 0 0 1 .07.05v-.84H5.5zm3.2 1.1a1.59 1.59 0 0 0-1.59 1.6 1.59 1.59 0 0 0 1.59 1.58 1.59 1.59 0 0 0 1.59-1.59 1.59 1.59 0 0 0-1.59-1.59zm-.27.53h.53l.02.28a.83.83 0 0 1 .24.14l.26-.12.26.46-.23.16a.83.83 0 0 1 .01.14.83.83 0 0 1 0 .14l.22.16-.26.46-.26-.12a.83.83 0 0 1-.24.14l-.02.28h-.53l-.03-.28a.83.83 0 0 1-.24-.14l-.25.12-.27-.46.23-.16a.83.83 0 0 1 0-.14.83.83 0 0 1 0-.14l-.23-.16.27-.46.25.12a.83.83 0 0 1 .24-.14l.03-.28zm.26.76a.3.3 0 0 0-.3.3.3.3 0 0 0 .3.3.3.3 0 0 0 .3-.3.3.3 0 0 0-.3-.3z" fill="#5beedc"/></svg>

<?xml version="1.0" encoding="UTF-8" standalone="no"?>
<svg
   xmlns:dc="http://purl.org/dc/elements/1.1/"
   xmlns:cc="http://creativecommons.org/ns#"
   xmlns:rdf="http://www.w3.org/1999/02/22-rdf-syntax-ns#"
   xmlns:svg="http://www.w3.org/2000/svg"
   xmlns="http://www.w3.org/2000/svg"
   xmlns:sodipodi="http://sodipodi.sourceforge.net/DTD/sodipodi-0.dtd"
   xmlns:inkscape="http://www.inkscape.org/namespaces/inkscape"
   width="48"
   height="48"
   viewBox="0 0 12.7 12.7"
   version="1.1"
   id="svg4"
   sodipodi:docname="winecfg.svg"
   inkscape:version="0.92.4 (5da689c313, 2019-01-14)">
  <metadata
     id="metadata10">
    <rdf:RDF>
      <cc:Work
         rdf:about="">
        <dc:format>image/svg+xml</dc:format>
        <dc:type
           rdf:resource="http://purl.org/dc/dcmitype/StillImage" />
        <dc:title></dc:title>
      </cc:Work>
    </rdf:RDF>
  </metadata>
  <defs
     id="defs8" />
  <sodipodi:namedview
     pagecolor="#ffffff"
     bordercolor="#666666"
     borderopacity="1"
     objecttolerance="10"
     gridtolerance="10"
     guidetolerance="10"
     inkscape:pageopacity="0"
     inkscape:pageshadow="2"
     inkscape:window-width="1087"
     inkscape:window-height="480"
     id="namedview6"
     showgrid="false"
     inkscape:zoom="4.9166667"
     inkscape:cx="2.1355932"
     inkscape:cy="24"
     inkscape:window-x="0"
     inkscape:window-y="25"
     inkscape:window-maximized="0"
     inkscape:current-layer="svg4" />
  <path
     d="M 6.34,0.07 A 6.29,6.29 0 0 0 0.05,6.37 6.29,6.29 0 0 0 6.35,12.65 6.29,6.29 0 0 0 12.63,6.36 6.29,6.29 0 0 0 6.34,0.07 Z M 6.33,1.01 a 5.4,5.4 0 0 1 5.4,5.4 5.4,5.4 0 0 1 -5.4,5.41 A 5.4,5.4 0 0 1 0.92,6.42 5.4,5.4 0 0 1 6.32,1 Z M 9.73,2.43 5.49,3.05 V 6.2 L 9.72,6.16 V 2.43 Z M 5.11,3.11 1.91,3.54 1.92,6.2 5.11,6.19 V 3.1 Z M 1.92,6.52 V 9.18 L 5.11,9.62 V 6.54 Z m 3.57,0.04 v 3.1 L 6.66,9.83 A 2.12,2.12 0 0 1 6.62,9.67 2.12,2.12 0 0 1 6.58,9.47 2.12,2.12 0 0 1 6.58,9.25 2.12,2.12 0 0 1 6.58,9.1 2.12,2.12 0 0 1 6.6,8.9 2.12,2.12 0 0 1 6.65,8.68 2.12,2.12 0 0 1 6.72,8.48 2.12,2.12 0 0 1 6.8,8.29 2.12,2.12 0 0 1 6.9,8.11 2.12,2.12 0 0 1 7.03,7.93 2.12,2.12 0 0 1 7.17,7.78 2.12,2.12 0 0 1 7.33,7.63 2.12,2.12 0 0 1 7.5,7.5 2.12,2.12 0 0 1 7.68,7.4 2.12,2.12 0 0 1 7.87,7.3 a 2.12,2.12 0 0 1 0.2,-0.07 2.12,2.12 0 0 1 0.2,-0.05 2.12,2.12 0 0 1 0.2,-0.04 2.12,2.12 0 0 1 0.22,0 2.12,2.12 0 0 1 0.15,0 2.12,2.12 0 0 1 0.21,0.02 2.12,2.12 0 0 1 0.2,0.05 2.12,2.12 0 0 1 0.2,0.07 2.12,2.12 0 0 1 0.2,0.08 2.12,2.12 0 0 1 0.07,0.05 V 6.57 H 5.5 Z m 3.2,1.1 A 1.59,1.59 0 0 0 7.1,9.26 1.59,1.59 0 0 0 8.69,10.84 1.59,1.59 0 0 0 10.28,9.25 1.59,1.59 0 0 0 8.69,7.66 Z M 8.42,8.19 H 8.95 L 8.97,8.47 A 0.83,0.83 0 0 1 9.21,8.61 L 9.47,8.49 9.73,8.95 9.5,9.11 a 0.83,0.83 0 0 1 0.01,0.14 0.83,0.83 0 0 1 0,0.14 L 9.73,9.55 9.47,10.01 9.21,9.89 A 0.83,0.83 0 0 1 8.97,10.03 L 8.95,10.31 H 8.42 L 8.39,10.03 A 0.83,0.83 0 0 1 8.15,9.89 L 7.9,10.01 7.63,9.55 7.86,9.39 a 0.83,0.83 0 0 1 0,-0.14 0.83,0.83 0 0 1 0,-0.14 L 7.63,8.95 7.9,8.49 8.15,8.61 A 0.83,0.83 0 0 1 8.39,8.47 Z m 0.26,0.76 a 0.3,0.3 0 0 0 -0.3,0.3 0.3,0.3 0 0 0 0.3,0.3 0.3,0.3 0 0 0 0.3,-0.3 0.3,0.3 0 0 0 -0.3,-0.3 z"
     id="path2"
     inkscape:connector-curvature="0"
     style="fill:#5beedc" />
</svg>
